X: 39303
T: Taken From The Road
R: waltz
M: 3/4
K: Gmajor
DG|:B2Bc BA|G2D4|E2G,2A,B,|A,4B,A,|G,2B,2D2|G2B2d2|
cB AG FG|A4D2|B2Bc BA|G4D2|E2EDC2|D4G,A,|
B,2D4|E2G2G,B,|A,4B,A,|1 G,4DG:|2 G,4dc||
|:B2BAG2|g4d2|e4ce|d4dc|B2Bc BA|G2D4|
E2G2GB|A4dc|B2BAG2|g4ba|g2gec2|d4GA|
B2d4|e2g2GB|A4BA|1 G4dc:|2 G6||

